icons/desktop/16/svg/tracking-cookies-16.svg

<svg width="16" height="16" viewBox="0 0 16 16" fill="none" xmlns="http://www.w3.org/2000/svg">
<path d="M10 10C10.5523 10 11 10.4477 11 11C11 11.5523 10.5523 12 10 12C9.44771 12 9 11.5523 9 11C9 10.4477 9.44771 10 10 10Z" fill="black"/>
<path d="M5 8.25C5.69036 8.25 6.25 8.80964 6.25 9.5C6.25 10.1904 5.69036 10.75 5 10.75C4.30964 10.75 3.75 10.1904 3.75 9.5C3.75 8.80964 4.30964 8.25 5 8.25Z" fill="black"/>
<path d="M7 4C7.55228 4 8 4.44772 8 5C8 5.55228 7.55228 6 7 6C6.44772 6 6 5.55228 6 5C6 4.44772 6.44772 4 7 4Z" fill="black"/>
<path fill-rule="evenodd" clip-rule="evenodd" d="M8 0C8.48312 0 8.94842 0.0501202 9.39258 0.12793C9.75756 0.191919 10.0209 0.513326 10.0127 0.883789C10.0118 0.92527 10.0088 0.960829 10.0059 0.986328C10.0043 0.999527 10.0024 1.01245 10.001 1.02246C10.0119 2.51005 11.1061 3.7419 12.5342 3.96387C12.769 4.00037 12.9726 4.14605 13.083 4.35645L13.3643 4.89258C13.4803 5.1139 13.4785 5.37893 13.3594 5.59863C13.1312 6.01976 13 6.49352 13 7C13 8.30863 13.8466 9.41537 15.0303 9.82227C15.2215 9.88808 15.3775 10.029 15.4639 10.2119C15.5502 10.3948 15.559 10.6045 15.4883 10.7939C14.355 13.829 11.4368 16 8 16C3.58179 16 0 12.4182 0 8C0 3.58179 3.58179 0 8 0ZM8 1.5C4.41021 1.5 1.5 4.41021 1.5 8C1.5 11.5898 4.41021 14.5 8 14.5C10.5407 14.5 12.7361 13.0374 13.8037 10.9072C12.4355 10.1412 11.5 8.6895 11.5 7C11.5 6.41081 11.6175 5.85284 11.8242 5.34277C10.0731 4.86974 8.74562 3.36827 8.53125 1.52539C8.35438 1.50936 8.17744 1.5 8 1.5Z" fill="black"/>
</svg>

<!-- This Source Code Form is subject to the terms of the Mozilla Public
   - License, v. 2.0. If a copy of the MPL was not distributed with this
   - file, You can obtain one at http://mozilla.org/MPL/2.0/. -->
<svg xmlns="http://www.w3.org/2000/svg" width="16" height="16" fill="context-fill" fill-opacity="context-fill-opacity" viewBox="0 0 16 16">
    <path d="M10 10a1 1 0 1 1 0 2 1 1 0 0 1 0-2M5 8.25a1.25 1.25 0 1 1 0 2.5 1.25 1.25 0 0 1 0-2.5M7 4a1 1 0 1 1 0 2 1 1 0 0 1 0-2" />
    <path fill-rule="evenodd" d="M8 0c.483 0 .948.05 1.393.128a.75.75 0 0 1 .62.756q-.002.063-.007.102L10 1.022a3 3 0 0 0 2.533 2.942.75.75 0 0 1 .549.392l.281.537a.75.75 0 0 1-.005.706C13.131 6.019 13 6.494 13 7c0 1.309.847 2.415 2.03 2.822a.75.75 0 0 1 .458.972C14.355 13.829 11.437 16 8 16A8 8 0 0 1 8 0m0 1.5a6.5 6.5 0 0 0 0 13 6.49 6.49 0 0 0 5.804-3.593A4.47 4.47 0 0 1 11.5 7c0-.59.117-1.147.324-1.657a4.5 4.5 0 0 1-3.293-3.818A6 6 0 0 0 8 1.5" clip-rule="evenodd" />
</svg>
